images/dist/icons/phone-call-white.svg

<svg width="24" height="24" viewBox="0 0 24 24" fill="none" xmlns="http://www.w3.org/2000/svg">
<g clip-path="url(#clip0)">
<path d="M23.9976 19.3384C23.9642 18.41 23.5775 17.5437 22.9088 16.8989C21.5995 15.6364 20.5026 14.9076 19.4566 14.6053C18.0154 14.1888 16.6804 14.5676 15.489 15.7311C15.4873 15.7328 15.4855 15.7346 15.4837 15.7364L14.2162 16.9944C13.4241 16.5479 11.8837 15.5675 10.2196 13.9033L10.0962 13.78C8.43177 12.1156 7.45138 10.575 7.00527 9.78378L8.2634 8.51623C8.26518 8.51445 8.26696 8.51267 8.26874 8.51084C9.43222 7.31956 9.81097 5.98465 9.39449 4.54329C9.09219 3.49737 8.36343 2.4004 7.1009 1.09113C6.45618 0.422555 5.58988 0.0358358 4.66152 0.00236701C3.7326 -0.0311486 2.84122 0.292195 2.14991 0.912727L2.12301 0.936914C2.11054 0.948117 2.09835 0.959696 2.08644 0.971555C0.71024 2.34776 -0.0111662 4.27437 0.000130668 6.54317C0.0193963 10.3973 2.13763 14.8049 5.66633 18.3335C6.33172 18.9989 7.08796 19.6574 7.91399 20.2908C8.32485 20.6058 8.91332 20.5282 9.22836 20.1173C9.54346 19.7064 9.46574 19.1179 9.05483 18.8029C8.29382 18.2193 7.59983 17.6154 6.99215 17.0078C3.80483 13.8205 1.89191 9.90504 1.87508 6.53384C1.86641 4.78652 2.39202 3.3281 3.39529 2.31438L3.40246 2.30791C4.08388 1.69624 5.11555 1.73346 5.75127 2.39266C8.17841 4.90976 8.00268 6.09809 6.93018 7.19787L5.19233 8.94874C4.9198 9.22334 4.84391 9.63715 5.00127 9.99059C5.04538 10.0897 6.11268 12.4481 8.77072 15.1062L8.89415 15.2294C11.5519 17.8872 13.9103 18.9544 14.0094 18.9985C14.3628 19.156 14.7767 19.08 15.0512 18.8075L16.8021 17.0696C17.9021 15.9971 19.0904 15.8214 21.6073 18.2486C22.2666 18.8842 22.3038 19.9159 21.6922 20.5972L21.6856 20.6046C20.6802 21.5997 19.2373 22.1249 17.509 22.1249C17.4947 22.1249 17.4805 22.1249 17.4662 22.1248C16.0847 22.1179 14.485 21.7392 12.8401 21.0297C12.3648 20.8246 11.8131 21.0438 11.608 21.5192C11.4029 21.9947 11.6221 22.5463 12.0975 22.7514C13.9989 23.5715 15.802 23.9915 17.4568 23.9998C17.4744 23.9998 17.4919 23.9999 17.5094 23.9999C19.7554 23.9999 21.6629 23.279 23.0285 21.9135C23.0403 21.9016 23.0518 21.8894 23.0631 21.8769L23.0874 21.8499C23.7079 21.1586 24.0312 20.2667 23.9976 19.3384Z" fill="white"/>
</g>
<defs>
<clipPath id="clip0">
<rect width="24" height="24" fill="white"/>
</clipPath>
</defs>
</svg>

<svg width="24" height="24" fill="none" xmlns="http://www.w3.org/2000/svg"><g clip-path="url(#clip0)"><path d="M23.998 19.338a3.55 3.55 0 00-1.09-2.44c-1.309-1.262-2.405-1.99-3.451-2.293-1.442-.416-2.777-.037-3.968 1.126l-.005.005-1.268 1.258c-.792-.446-2.332-1.426-3.996-3.09l-.124-.124c-1.664-1.664-2.645-3.205-3.09-3.996l1.257-1.268a.545.545 0 00.006-.005C9.432 7.32 9.81 5.985 9.394 4.543 9.092 3.497 8.364 2.4 7.101 1.091A3.55 3.55 0 004.66.002a3.55 3.55 0 00-2.511.91l-.027.025a.982.982 0 00-.037.035C.71 2.348-.01 4.274 0 6.543c.02 3.854 2.138 8.262 5.666 11.79a22.852 22.852 0 002.248 1.958.937.937 0 101.14-1.488 20.992 20.992 0 01-2.062-1.795c-3.187-3.188-5.1-7.103-5.117-10.474-.009-1.747.517-3.206 1.52-4.22l.007-.006a1.686 1.686 0 012.35.085C8.177 4.91 8.001 6.098 6.93 7.198l-1.738 1.75a.938.938 0 00-.19 1.043c.043.099 1.11 2.457 3.769 5.115l.123.123c2.658 2.658 5.016 3.725 5.115 3.77a.937.937 0 001.042-.191l1.751-1.738c1.1-1.073 2.288-1.249 4.805 1.179.66.635.697 1.667.085 2.348l-.006.008c-1.006.995-2.449 1.52-4.177 1.52h-.043c-1.381-.007-2.981-.386-4.626-1.095a.937.937 0 00-.742 1.721c1.9.82 3.704 1.24 5.359 1.249h.052c2.246 0 4.154-.721 5.52-2.087a1.09 1.09 0 00.034-.036l.024-.027a3.55 3.55 0 00.91-2.512z" fill="#fff"/></g><defs><clipPath id="clip0"><path fill="#fff" d="M0 0h24v24H0z"/></clipPath></defs></svg>
